X:114
T:Boleras.
T:John Malchair's Third Collection of Tunes
%%VWML:Malchair-3619-p114
F:https://www.vwml.org/record/Malchair/3619/p114
F:www.vwml.org/topics/historic-dance-and-tune-books/Malchair
Z:Eric Conrad Feb 2020
M:3/8
L:1/16
K:D
[Fd][Fd]/[Fd]/ [Fd][Fd]/[Fd]/ [Fd][Fd]/[Fd]/ | [Fd][Fd]/[Fd]/ [Fd][Fd] [Ec][Ec] | \
[Fd]2[Fd]2[Fd]2 | [Fd]4 z f | a3 fge | f>d g>e a>f |
dffegf | [Fd][Fd]/[Fd]/ [Fd][Fd]/[Fd]/ [Fd][Fd] | [Fd]3 bbb | \
b^a fg gf- | f3 cde | edfd B2 |
B3 bbb | b^a fg b=a- | a3 fge | f>d g>e a>f | dffegf | \
!segno![Fd][Fd]/[Fd]/ [Fd][Fd]/[Fd]/ [Fd][Fd]/[Fd]/ |
[Fd][Fd]/[Fd]/ [Fd][Fd] [Ec][Ec] | [Fd]2[Fd]2[Fd]2 | [Fd]3 bbb | \
b^a fg gf- | f3 cde | edfd B2 |
B3 bbb | b^a fg b=a | a3fge | f>d g>e a>f | dffegf | "^D.C. al"!segno![Fd]2


